dist/img/Penguin.svg

<svg width="33" height="66" viewBox="0 0 33 66" fill="none" xmlns="http://www.w3.org/2000/svg">
<path d="M13.9111 59.1992C14.1596 58.1945 14.0656 56.3397 14.0656 56.3397L18.5481 54.3303C18.5481 54.3303 18.1388 55.5521 18.2389 56.3397C18.3245 57.0125 18.7255 57.2973 18.8572 57.9626C19.0096 58.7324 18.6789 59.2078 18.8572 59.972C18.9833 60.5124 19.3982 61.2858 19.3982 61.2858C19.3982 61.2858 20.0175 61.1424 20.3256 60.8994C20.7606 60.5563 20.8183 60.1785 21.0212 59.6629C21.5625 58.2867 20.8666 55.876 21.0212 55.876C21.1757 55.876 25.0399 58.5036 25.0399 58.5036C25.0399 58.5036 24.521 59.6497 24.4216 60.4357C24.2693 61.6406 24.4497 62.4592 23.6488 63.527C23.3165 63.8033 22.6441 63.9907 22.6441 63.9907C22.6441 63.9907 20.4802 66.0001 20.5575 65.4591C20.5575 64.7636 20.712 63.6816 20.712 63.6816C20.712 63.6816 16.075 65.8455 16.075 65.4591C15.9204 64.8409 16.616 63.9907 16.616 63.9907C16.616 63.9907 14.993 64.9954 15.1476 64.5317C15.2556 64.2079 15.4641 63.8505 15.6561 63.561C15.5713 63.6296 15.4777 63.6773 15.3795 63.6816C14.8359 63.7055 14.9158 62.3678 14.9158 62.3678C14.9158 62.3678 12.3654 63.9907 11.2062 63.9907C10.9413 63.4786 11.0516 62.5224 11.0516 62.5224C11.0516 62.5224 9.1968 63.1406 8.34668 63.0633C8.50125 62.0587 9.2294 61.7817 9.96963 61.1313C11.2573 59.9997 13.1382 59.5856 13.9111 59.1992Z" fill="#0A5D69"/>
<path d="M1.00468 0.386598C0.761655 0.486957 0.468771 0.674154 0.262104 0.816374C0.15513 0.88999 0.187455 1.05088 0.313518 1.08204C0.576551 1.14706 0.953546 1.2409 1.23653 1.314C2.63339 1.67483 3.44268 1.80694 4.79157 2.31868C6.47004 2.95546 7.44066 3.34273 8.88759 4.40533C9.56041 4.89944 9.96626 5.16351 10.5105 5.79643L10.5169 5.80383C11.3145 6.73126 11.8548 7.35963 11.9789 8.57864C12.0125 8.90892 11.9789 9.42875 11.9789 9.42875C11.9789 9.42875 12.7939 9.93183 13.37 10.1243C14.9157 10.6653 20.5574 8.34676 20.5574 5.87372C19.9391 3.9416 18.7256 2.23653 16.5386 1.314C15.9313 1.0578 15.5668 0.953009 14.9157 0.850298C14.0809 0.71862 13.5955 0.802669 12.7518 0.850298C11.4733 0.922468 10.7859 1.34807 9.50586 1.314C8.52869 1.28799 7.99649 1.0913 7.03279 0.927582C5.45719 0.659915 4.61206 0.131748 3.01405 0.154748C2.22422 0.166116 1.73479 0.0850976 1.00468 0.386598Z" fill="#0A5D69"/>
<path d="M16.3069 9.35129C15.2909 9.79303 13.6337 10.0608 13.2823 10.1142C13.256 10.1182 13.2476 10.1514 13.2679 10.1686L14.7612 11.4379L17.6207 13.6019C17.6207 13.6019 19.5884 15.3202 20.3256 16.7705C20.6762 17.4601 20.7614 17.8966 21.0212 18.6253C21.6688 20.4416 22.4896 23.3396 22.4896 23.3396C22.4896 23.3396 23.053 25.355 23.8034 26.4309C24.2436 27.0621 24.6137 27.3175 25.1172 27.8993C25.9593 28.8724 26.6257 29.3 27.2039 30.4496C27.9352 31.904 27.6508 32.7785 27.9767 34.5457C28.4055 36.8708 29.2905 40.8829 29.2905 40.8829V42.0422C29.2905 43.521 29.4468 44.3584 29.2905 45.829C29.1373 47.2712 28.5177 49.4614 28.5177 49.4614L26.8031 54.9623C26.7864 55.0158 26.8594 55.0474 26.8859 54.998C27.2141 54.3842 27.8294 53.2174 28.2085 52.3981C28.7495 50.9297 28.9067 49.5094 29.4451 47.6838C29.6762 46.9001 30.038 45.7695 30.1687 45.3633C30.183 45.319 30.246 45.3214 30.2575 45.3665L31.4545 50.0796C31.4545 50.0796 32.0727 51.7799 32.691 51.8571C33.0677 51.5418 32.9228 50.6206 32.9228 50.6206C32.9228 50.6206 32.1887 48.3319 31.8409 46.8337C31.4941 45.3401 31.4447 44.4734 31.1453 42.9696C31.0009 42.2439 30.8818 41.8444 30.7589 41.1148C30.6816 39.6464 30.6094 37.2055 30.5271 34.7002C30.4615 32.7084 30.6576 31.5719 30.3725 29.5995C30.2226 28.5626 30.0871 27.9879 29.8315 26.9719C29.3332 24.9911 28.8996 23.9183 28.1313 22.0258C27.4557 20.3617 26.8942 19.5085 26.1992 17.8525C25.6482 16.5398 25.507 15.7328 24.8854 14.452C24.1757 12.9898 23.5073 12.3196 22.7214 10.897C22.1797 9.91628 21.8439 9.37851 21.4076 8.3466C21.0552 7.5131 20.6598 6.2149 20.5743 5.93002C20.5671 5.90598 20.5364 5.90018 20.5207 5.91979C20.3387 6.14762 19.5161 7.16225 18.8573 7.72834C17.9619 8.49771 17.3895 8.88058 16.3069 9.35129Z" fill="#0A5D69"/>
<path d="M5.8737 34.0046C6.24458 32.5528 7.11023 30.3723 7.11023 30.3723L9.81515 46.6018C9.81515 46.6018 9.35144 48.7658 7.96035 48.3793C7.11022 47.9929 6.18282 47.2974 5.71913 46.37C5.34469 45.6817 5.33049 45.2065 5.17815 44.4379C4.93691 43.2208 4.9515 42.51 4.94629 41.2693C4.93999 39.7678 5.05323 38.9197 5.25051 37.442L5.25543 37.4051C5.43403 36.0672 5.53962 35.3124 5.8737 34.0046Z" fill="#0A5D69" stroke="#0A5D69" stroke-width="0.154567"/>
<path d="M12.7846 10.246L12.7846 10.246C13.2617 10.723 13.5716 10.988 13.9501 11.3115C14.0749 11.4182 14.2071 11.5313 14.3553 11.6604C14.9133 12.1468 15.415 12.4486 15.8686 12.7215C15.9129 12.7481 15.9567 12.7745 16.0001 12.8007C16.485 13.094 16.9286 13.3787 17.4193 13.8759C19.1654 15.6452 20.1439 16.74 20.7713 18.9915C21.5408 21.7532 22.6051 25.169 24.3197 27.6432L24.3453 27.6802L24.3771 27.712C24.5804 27.9153 24.8063 28.1262 25.0333 28.3382C25.0519 28.3556 25.0705 28.373 25.0891 28.3904C25.3375 28.6224 25.5882 28.8579 25.8293 29.1014C26.3158 29.5926 26.7346 30.0884 26.9884 30.5961C27.7932 32.2058 28.7904 36.3732 28.7904 40.6512C28.7904 41.4459 28.8384 42.0909 28.8835 42.6975C28.8903 42.7884 28.897 42.8784 28.9034 42.9679C28.9526 43.6491 28.9894 44.3141 28.9467 45.1637C28.566 47.8958 28.0343 49.9495 27.1924 52.7057C26.3939 54.9684 25.4816 56.7427 24.6067 58.3558C24.0554 58.2786 23.476 58.1248 22.9771 57.9572C22.6809 57.8577 22.42 57.7557 22.2181 57.6665C22.117 57.6219 22.0336 57.5817 21.9695 57.548C21.9478 57.5365 21.9291 57.5263 21.9133 57.5172C21.9094 57.5029 21.9047 57.4844 21.8996 57.4608C21.8874 57.404 21.8764 57.3371 21.8632 57.2518L21.8582 57.2199C21.8468 57.146 21.8337 57.0611 21.818 56.9758C21.7525 56.6201 21.6049 56.006 21.0024 55.7328C20.7893 55.6285 20.5349 55.5732 20.3018 55.532C20.1881 55.5118 20.0376 55.4888 19.8841 55.4653C19.7492 55.4446 19.6119 55.4236 19.4952 55.4039C18.9218 55.307 18.2907 55.1606 17.6709 54.825C17.3276 54.6392 16.8872 54.6769 16.5852 54.9608C16.3096 55.2199 15.8894 55.5884 15.4425 55.8889C15.0665 56.1417 14.7318 56.3044 14.4755 56.3597C14.4104 56.2695 14.3744 56.1551 14.3416 55.982C14.3334 55.9383 14.3253 55.8878 14.3163 55.8317C14.2762 55.5807 14.2186 55.2199 14.0494 54.8803C13.7689 54.3169 13.486 53.9146 13.197 53.5358C13.1244 53.4406 13.0528 53.3486 12.9814 53.2567C12.7664 52.9803 12.5527 52.7057 12.3178 52.3529C12.0565 51.9606 11.827 51.6428 11.6171 51.352C11.1763 50.7412 10.8215 50.2498 10.4386 49.4385C10.0735 48.1848 9.92062 47.0075 9.805 45.7422C9.77502 45.414 9.74747 45.0785 9.71918 44.7339C9.63801 43.7454 9.55074 42.6826 9.38254 41.5077C9.06158 39.2658 8.73255 37.195 8.42613 35.2904C8.38504 35.035 8.34437 34.7826 8.30418 34.5333C8.04548 32.9283 7.80695 31.4484 7.60723 30.0848C7.44298 27.991 7.3579 26.8221 7.3782 24.7357C7.38225 24.3186 7.38299 23.9272 7.38368 23.5547C7.38723 21.6554 7.38986 20.2486 7.82796 18.4336L7.828 18.4336L7.82937 18.4276C8.41521 15.862 9.09905 14.4533 10.3926 12.1694C10.5445 11.9529 10.6897 11.736 10.8318 11.5237C11.0556 11.1895 11.2717 10.8666 11.4942 10.5748C11.6725 10.341 11.8297 10.1626 11.9645 10.0465C12.0833 9.94432 12.139 9.9303 12.1413 9.92873C12.3545 9.92996 12.4728 9.98162 12.5447 10.0266C12.6136 10.0697 12.6523 10.1098 12.7142 10.174C12.7346 10.1951 12.7574 10.2187 12.7846 10.246ZM13.1381 9.89249L13.1382 9.89241L13.1381 9.89249Z" fill="white" stroke="#0A5D69"/>
</svg>

<svg width="33" height="66" fill="none" xmlns="http://www.w3.org/2000/svg"><path d="M13.911 59.2c.249-1.006.155-2.86.155-2.86l4.482-2.01s-.41 1.222-.31 2.01c.087.672.488.957.62 1.623.152.77-.18 1.245 0 2.009.125.54.54 1.314.54 1.314s.62-.144.928-.387c.435-.343.492-.72.695-1.236.541-1.376-.154-3.787 0-3.787.155 0 4.019 2.628 4.019 2.628s-.519 1.146-.618 1.932c-.153 1.205.028 2.023-.773 3.091-.332.276-1.005.464-1.005.464S20.48 66 20.558 65.459c0-.695.154-1.777.154-1.777s-4.637 2.163-4.637 1.777c-.155-.618.541-1.468.541-1.468s-1.623 1.004-1.468.54c.108-.323.316-.68.508-.97a.484.484 0 01-.277.12c-.543.025-.463-1.313-.463-1.313s-2.55 1.623-3.71 1.623c-.265-.512-.154-1.469-.154-1.469s-1.855.619-2.705.541c.154-1.004.882-1.281 1.623-1.932 1.287-1.131 3.168-1.545 3.94-1.931zM1.005.387c-.243.1-.536.287-.743.43a.147.147 0 00.052.265c.263.065.64.159.923.232 1.396.36 2.206.493 3.555 1.005 1.678.636 2.649 1.024 4.096 2.086.672.494 1.078.759 1.623 1.391l.006.008c.798.927 1.338 1.556 1.462 2.775.034.33 0 .85 0 .85s.815.503 1.391.695c1.546.541 7.187-1.777 7.187-4.25-.618-1.932-1.831-3.637-4.018-4.56A5.98 5.98 0 0014.916.85c-.835-.131-1.32-.047-2.164 0-1.279.072-1.966.498-3.246.464-.977-.026-1.51-.223-2.473-.386C5.457.66 4.613.132 3.014.155c-.79.011-1.28-.07-2.01.232z" fill="#0A5D69"/><path d="M16.307 9.351c-1.016.442-2.673.71-3.025.763-.026.004-.034.037-.014.055l1.493 1.269 2.86 2.164s1.967 1.718 2.705 3.168c.35.69.435 1.127.695 1.855.648 1.817 1.469 4.715 1.469 4.715s.563 2.015 1.313 3.09c.44.632.81.887 1.314 1.47.842.972 1.509 1.4 2.087 2.55.731 1.454.447 2.329.773 4.096.428 2.325 1.314 6.337 1.314 6.337v1.16c0 1.478.156 2.315 0 3.786-.154 1.442-.773 3.632-.773 3.632l-1.715 5.501c-.017.054.056.085.083.036.328-.614.943-1.78 1.323-2.6.54-1.468.698-2.889 1.236-4.714.231-.784.593-1.914.724-2.32a.045.045 0 01.088.003l1.197 4.713s.619 1.7 1.237 1.777c.377-.315.232-1.236.232-1.236s-.734-2.29-1.082-3.787c-.347-1.494-.396-2.36-.696-3.864-.144-.726-.263-1.126-.386-1.855-.077-1.469-.15-3.91-.232-6.415-.066-1.992.13-3.128-.155-5.1-.15-1.037-.285-1.612-.54-2.628-.499-1.98-.932-3.054-1.7-4.946-.676-1.664-1.238-2.517-1.933-4.174-.55-1.312-.692-2.12-1.314-3.4-.71-1.462-1.378-2.132-2.164-3.555-.541-.98-.877-1.518-1.313-2.55-.353-.834-.748-2.132-.834-2.417a.03.03 0 00-.053-.01c-.182.228-1.005 1.242-1.664 1.808-.895.77-1.467 1.153-2.55 1.623z" fill="#0A5D69"/><path d="M5.874 34.005c.37-1.452 1.236-3.633 1.236-3.633l2.705 16.23s-.464 2.164-1.855 1.777c-.85-.386-1.777-1.082-2.24-2.009-.375-.688-.39-1.163-.542-1.932-.241-1.217-.226-1.928-.232-3.169-.006-1.501.107-2.35.305-3.827l.004-.037c.179-1.338.285-2.093.619-3.4z" fill="#0A5D69" stroke="#0A5D69" stroke-width=".155"/><path d="M12.785 10.246h0c.477.477.787.742 1.165 1.066.125.106.257.22.405.348.558.487 1.06.789 1.514 1.062L16 12.8c.485.293.929.578 1.42 1.075 1.745 1.77 2.724 2.864 3.351 5.115.77 2.762 1.834 6.178 3.549 8.652l.025.037.032.032c.203.203.43.414.656.626l.056.052c.248.232.5.468.74.711.487.492.906.987 1.16 1.495.804 1.61 1.801 5.777 1.801 10.055 0 .795.048 1.44.094 2.046l.02.27c.049.682.085 1.347.043 2.197-.381 2.732-.913 4.785-1.755 7.542-.798 2.262-1.71 4.037-2.585 5.65a9.374 9.374 0 01-1.63-.399 9.072 9.072 0 01-.759-.29 4.114 4.114 0 01-.305-.15 3.804 3.804 0 01-.05-.265l-.005-.032a8.524 8.524 0 00-.04-.244c-.066-.356-.213-.97-.816-1.243a2.688 2.688 0 00-.7-.201c-.114-.02-.264-.043-.418-.067-.135-.02-.272-.041-.389-.061-.573-.097-1.204-.243-1.824-.579a.935.935 0 00-1.086.136 9.482 9.482 0 01-1.143.928c-.376.253-.71.415-.966.47-.066-.09-.102-.204-.134-.377-.009-.044-.017-.094-.026-.15-.04-.251-.097-.612-.267-.952a7.947 7.947 0 00-.852-1.344l-.216-.28c-.215-.276-.428-.55-.663-.903-.261-.392-.491-.71-.7-1.001-.442-.61-.796-1.102-1.18-1.913-.365-1.254-.517-2.431-.633-3.697a111 111 0 01-.086-1.008 52.04 52.04 0 00-.336-3.226 356.76 356.76 0 00-1.079-6.975 322.745 322.745 0 01-.697-4.448c-.164-2.094-.25-3.263-.229-5.35.004-.416.005-.808.006-1.18.003-1.9.006-3.306.444-5.121h0l.001-.006c.586-2.566 1.27-3.975 2.564-6.259a39.1 39.1 0 00.439-.645c.224-.334.44-.657.662-.95.178-.233.336-.411.47-.527.12-.103.175-.117.177-.118a.733.733 0 01.404.098.823.823 0 01.17.147c.02.021.042.045.07.072zm.353-.354h0z" fill="#fff" stroke="#0A5D69"/></svg>
